X:112
T: Let Us Waa to the Wedding
N: O'Farrell's Pocket Companion v.2 (Sky ed. p.62)
N: ? Let Us Awa' to the Wedding
M: 9/8
L: 1/8
R: slip jig
Q: 320
K: Em
D/E/|GAG Gge dBG|ABA ABd e3|GAB gfe dcB|ABA BAG E2 :|
P:2
d|gdg g/a/bg fed|edB gab Ha3|gdg g/a/bg fed|1 e/f/ge dcA A2 :|
[2 e/f/gf edB AGE ||
P:3
GGG Gge dBG|AAA ABc e3|GAB g a/g/f/e/ dcB|ABA BAG E3 :|
